app/images/icons/facebook-icon.svg

<svg fill="none" height="32" viewBox="0 0 32 32" width="32" xmlns="http://www.w3.org/2000/svg"><path d="m0 16c0-8.83656 7.16344-16 16-16 8.8366 0 16 7.16344 16 16 0 8.8366-7.1634 16-16 16-8.83656 0-16-7.1634-16-16zm17.6677 9.4077v-8.7049h2.4029l.3185-2.9997h-2.7214l.0041-1.5014c0-.7824.0743-1.2016 1.198-1.2016h1.5022v-3.0001h-2.4032c-2.8867 0-3.9028 1.4552-3.9028 3.9024v1.801h-1.7993v2.9997h1.7993v8.7046z" fill="#117cb6"/></svg>

<svg width="32" height="32" viewBox="0 0 32 32" fill="none" xmlns="http://www.w3.org/2000/svg">
<path d="M0 16C0 7.16344 7.16344 0 16 0C24.8366 0 32 7.16344 32 16C32 24.8366 24.8366 32 16 32C7.16344 32 0 24.8366 0 16ZM17.6677 25.4077V16.7028H20.0706L20.3891 13.7031H17.6677L17.6718 12.2017C17.6718 11.4193 17.7461 11.0001 18.8698 11.0001H20.372V8H17.9688C15.0821 8 14.066 9.4552 14.066 11.9024V13.7034H12.2667V16.7031H14.066V25.4077H17.6677Z" fill="#117CB6"/>
</svg>
